X: 14799
T: Gånglåt Från Mockfjärd
R: hornpipe
M: 4/4
K: Dmajor
FG|A>B AG FD FG|A/B/A/F/ Ad f2 ef|gb/g/ fa/f/ eg/e/ df/d/|ce/c/ E/^G/B/G/ A3 F/=G/|
A>B AG FD FG|A/B/A/F/ Ad f2 ef|gb/g/ fa/f/ eg/e/ df/d/|ca A/c/e/c/ d2ef|
g>a g/f/g/a/ bg dB|A>g f/e/f/g/ a3 (3g/a/g/|fe e/^d/e/f/ ge cA|df/d/ ce/c/ Bd/B/ Ae/f/|
g>a g/f/g/a/ bg dB|A>g f/e/f/g/ a3 (3g/a/g/|fe e/^d/e/f/ ge cA|df A/c/e/c/ d2z2|

